X:1
T:Title
%%score ( 1 2 ) { 3 | 4 }
L:1/8
Q:1/4=87
M:3/4
K:G
V:1 treble nm="Grand Piano, Soprano"
V:2 treble 
V:3 treble nm="Choir Pad, New South Wales, 87.87 D"
V:4 bass 
V:1
 D>[DG] [GB]2 [GB]2 | [Gc]>[GB] [GB]2 [FA]2 | D>[DF] [FA]3 [FA] | (3[FA][GB][Ac] [GB]4 | %4
w: By~Frank~Marion~Davis,~1878 * * *||||
 [DG]>[DG] [EG]2 [EG]2 | (3[E-A][EG][CE] [B,D]2 [DG]2 | [DB]>[DB] [Ec]3 [EA] | [DG][DF] [DG]4 | %8
w: ||||
 (3G[FA][=FB] [Ec]2 [Ec]2 | (3EG[Ec] [EB]2 [DG]2 | (3FG[GB] [FA]2 [EG]2 | %11
w: |||
 (3[D-F][DE][DF] [DG]2 [GB]2 | (3[GB][Ac][Bd] [Bd]2 [GB]2 | (3[Bd][Ac][GB] [Ec]2 [Ec]2 | %14
w: |||
 (3[E-c][EB][EA] [DG]2 [DG]2 | (3[D-F][DG][DA] [DG]4- | [DG]2 z2 z2 |] %17
w: |||
V:2
 x6 | x6 | x6 | x6 | x6 | x6 | x6 | x6 | x6 | x6 | D2 z2 z2 | x6 | x6 | x6 | x6 | x6 | x6 |] %17
V:3
 B,>B, D2 D2 | E>D D2 D2 | F,>A, D3 D | (3:2:2D2[K:treble] D D4 | B,>B, C2 C2 | %5
 (3:2:2C2[K:bass] G, G,2 B,2 | G,>G, G,3 C | B,A, B,4 | (3B,A,G, G,2 G,2 | (3:2:2G,2 G, G,2 B,2 | %10
 (3A,B,[K:treble]D D2 B,2 | (3:2:2C2 C[K:bass] B,2 D2 | (3:2:2G,2 G, G,2 G,2 | %13
 (3:2:2G,2 G, G,2 G,2 | (3:2:2G,2 C B,2 B,2 | (3A,B,C B,4- | B,2 z2 z2 |] %17
V:4
 G,>G, G,2 G,2 | G,>G, D,2 D,2 | D,>D, D,3 D, | (3:2:2D,2 D, G,4 | G,>G, C,2 C,2 | %5
 (3:2:2C,2 C, z2 G,2 | z2 C,3 C, | D,D, G,4 | G,2 C,2 C,2 | (3:2:2C,2 C, z2 G,2 | %10
 (3:2:2D,2 D, D,2 D,2 | (3:2:2D,2 D, G,4 | z6 | z2 C,2 C,2 | (3:2:2C,2 B,, D,2 D,2 | %15
 (3:2:2D,2 D, G,,4- | G,,2 z2 z2 |] %17

